img/profile/email.svg

<svg width="24" height="24" viewBox="0 0 24 24" fill="none" xmlns="http://www.w3.org/2000/svg">
<path d="M4.1999 6.5998L11.3169 11.5269C11.7278 11.8114 12.272 11.8114 12.683 11.5269L19.7999 6.5998M4.7999 19.1998H19.1999C20.5254 19.1998 21.5999 18.1253 21.5999 16.7998V7.1998C21.5999 5.87432 20.5254 4.7998 19.1999 4.7998H4.7999C3.47442 4.7998 2.3999 5.87432 2.3999 7.19981V16.7998C2.3999 18.1253 3.47442 19.1998 4.7999 19.1998Z" stroke="#F2F4F6" stroke-width="2" stroke-linecap="round" stroke-linejoin="round"/>
</svg>

<svg width="24" height="24" viewBox="0 0 24 24" fill="none" xmlns="http://www.w3.org/2000/svg"><path d="M4.2 6.6l7.117 4.927a1.2 1.2 0 001.366 0L19.8 6.6m-15 12.6h14.4a2.4 2.4 0 002.4-2.4V7.2a2.4 2.4 0 00-2.4-2.4H4.8a2.4 2.4 0 00-2.4 2.4v9.6a2.4 2.4 0 002.4 2.4z" stroke="#F2F4F6" stroke-width="2" stroke-linecap="round" stroke-linejoin="round"/></svg>
